!!!OTL: Studentenleben.
!!!OTL-incipit: ES LEBEN DIE STUDENTEN
!!!ARE: Europa, Mitteleuropa, Deutschland
!!!SCT: F0550
!!!TXL: @@DE
!!!YEM: Copyright 1995, estate of Helmut Schaffrath.
**kern	**text
*ICvox	*
*M6/8	*
*k[b-]	*
*F:	*
!LO:TX:a:t=Schnell und heiter.	!
{8a	1._Es
=1	=1
4a	le-
8a	-ben
4a	die
8a	Stu-
=2	=2
4.a	-den-
8a	-ten
8r}	.
{8a	ſtets
=3	=3
4g#	in
8a	den
4dd	Tag
8cc	hi-
=4	=4
(4.cc	-nein.
4b-)}	.
{8a	Wär'n
=5	=5
4g	wir
8g	der
4g	Welt
8g	Re-
=6	=6
4.g	-gen-
8g	-ten,
8r}	.
{8g	sollt'
=7	=7
4g	im-
8a	-mer
4b-	Festtag
8cc	.
=8	=8
(4.dd	ſein.
4cc)}	.
{8f	Für-
=9	=9
[4.dd	-wahr,
8dd]	.
8r	.
8dd	für-
=10	=10
[4.cc	-wahr,
8cc]	.
8r}	.
{8cc	das
=11	=11
4b-	ist
8a	doch
4b-	son-
8cc	-der-
=12	=12
[4.a	-bar,
8a]	.
8r}	.
{8f	für-
=13	=13
[4.dd	-wahr,
8dd]	.
8r	.
8dd	für-
=14	=14
[4.cc	-wahr,
8cc]	.
8r}	.
{8cc	das
=15	=15
4ee	iſt
8dd	doch
4b-	ſon-
8g	-der-
=16	=16
8f	-bar.
8r	.
8a'	Jup,
8a'	jup,
8r}	.
{8a'	jop,
=17	=17
8a'	jop,
8r	.
8a'	tra,
8cc'	la,
8b-'	la,
8a'	la,
=18	=18
8g'	la,
8r	.
8g'	jup,
8g'	jup,
8r}	.
{8g'	jop,
=19	=19
8g'	jop,
8r	.
8g'	tra,
8b-'	la,
8a'	la,
8g'	la,
=20	=20
4a	la,
8r	.
4r}	.
{8f	für-
=21	=21
[4.dd	-wahr,
8dd]	.
8r	.
8dd	für-
=22	=22
[4.cc	-wahr,
8cc]	.
8r}	.
{8cc	das
=23	=23
4b-	iſt
8a	doch
4b-	ſon-
8cc	-der-
=24	=24
[4.a	-bar,
8a]	.
8r}	.
{8f	für-
=25	=25
[4.dd	-wahr,
8dd]	.
8r	.
8dd	für-
=26	=26
[4.cc	-wahr,
8cc]	.
8r}	.
{8cc	das
=27	=27
8ee/L	iſt
8ddJ	.
8cc	doch
(8b-\L	ſon-
8aJ)	.
8g	-der-
=28	=28
4f	-bar.
8r	.
4r}	.
==	==
!!!AGN: Studenten - Lied, Geselligkeit
!!!ONB: ESAC (Essen Associative Code) Database: FINK
!!!AMT: compound duple
!!!AIN: vox
!!!EED: Helmut Schaffrath
!!!EEV: 1.0
!!!GTL: Studentenlieder
!!Text: Chr. Dehn
!!!source: Musikalischer Hausschatz der Deutschen. Eine Sammlung von über 1000 Liedern und Gesängen mit Singstimmen und Klavierbegleitung. Leipzig, Litterarisches Verlags-Haus.
!!!page: 353
!!!ENC: Anna Maria Matuszewska
!!!EEV: 2025/03/18
*-	*-
